dist/images/terminal.svg

<?xml version="1.0" encoding="UTF-8"?>
<svg width="1651px" height="1075px" viewBox="0 0 1651 1075" version="1.1" xmlns="http://www.w3.org/2000/svg" xmlns:xlink="http://www.w3.org/1999/xlink">
    <!-- Generator: Sketch 45.1 (43504) - http://www.bohemiancoding.com/sketch -->
    <title>terminal</title>
    <desc>Created with Sketch.</desc>
    <defs></defs>
    <g id="Page-1" stroke="none" stroke-width="1" fill="none" fill-rule="evenodd">
        <g id="terminal" fill-rule="nonzero" fill="#EDEDED">
            <path d="M572,522 L106,988 C99.3333333,994.666667 91.6666667,998 83,998 C74.3333333,998 66.6666667,994.666667 60,988 L10,938 C3.33333333,931.333333 0,923.666667 0,915 C0,906.333333 3.33333333,898.666667 10,892 L403,499 L10,106 C3.33333333,99.3333333 0,91.6666667 0,83 C0,74.3333333 3.33333333,66.6666667 10,60 L60,10 C66.6666667,3.33333333 74.3333333,0 83,0 C91.6666667,0 99.3333333,3.33333333 106,10 L572,476 C578.666667,482.666667 582,490.333333 582,499 C582,507.666667 578.666667,515.333333 572,522 Z M1651,979 L1651,1043 C1651,1052.33333 1648,1060 1642,1066 C1636,1072 1628.33333,1075 1619,1075 L659,1075 C649.666667,1075 642,1072 636,1066 C630,1060 627,1052.33333 627,1043 L627,979 C627,969.666667 630,962 636,956 C642,950 649.666667,947 659,947 L1619,947 C1628.33333,947 1636,950 1642,956 C1648,962 1651,969.666667 1651,979 Z" id="Shape"></path>
        </g>
    </g>
</svg>

<svg width="1651" height="1075" viewBox="0 0 1651 1075" xmlns="http://www.w3.org/2000/svg"><title>terminal</title><path d="M572 522L106 988c-6.667 6.667-14.333 10-23 10s-16.333-3.333-23-10l-50-50c-6.667-6.667-10-14.333-10-23s3.333-16.333 10-23l393-393L10 106C3.333 99.333 0 91.667 0 83s3.333-16.333 10-23l50-50C66.667 3.333 74.333 0 83 0s16.333 3.333 23 10l466 466c6.667 6.667 10 14.333 10 23s-3.333 16.333-10 23zm1079 457v64c0 9.333-3 17-9 23s-13.667 9-23 9H659c-9.333 0-17-3-23-9s-9-13.667-9-23v-64c0-9.333 3-17 9-23s13.667-9 23-9h960c9.333 0 17 3 23 9s9 13.667 9 23z" fill-rule="nonzero" fill="#EDEDED"/></svg>
